public/static/img/assets/more_icon.svg

<svg width="20" height="20" viewBox="0 0 20 20" fill="none" xmlns="http://www.w3.org/2000/svg">
<path d="M14.3945 9.98213C14.3947 10.4626 14.1931 10.9245 13.8316 11.2726L7.85233 17.7974C7.53494 18.1437 6.97108 18.189 6.59276 17.8983C6.21463 17.6077 6.16522 17.0913 6.4826 16.7448L12.5326 10.1444C12.5803 10.1017 12.607 10.0433 12.607 9.98233C12.607 9.92139 12.5803 9.8628 12.5326 9.82022L12.4814 9.76612L6.4826 3.22003C6.16522 2.87354 6.21463 2.35713 6.59276 2.06651C6.97108 1.77588 7.53494 1.821 7.85233 2.16749L13.8316 8.6917C14.1931 9.03975 14.3947 9.50167 14.3945 9.98213Z" fill="black"/>
</svg>

<svg width="20" height="20" viewBox="0 0 20 20" fill="none" xmlns="http://www.w3.org/2000/svg"><path d="M14.395 9.982c0 .48-.202.943-.563 1.29l-5.98 6.525a.952.952 0 0 1-1.26.101.772.772 0 0 1-.11-1.153l6.05-6.6a.217.217 0 0 0 .075-.163.22.22 0 0 0-.074-.162l-.052-.054L6.483 3.22a.772.772 0 0 1 .11-1.153.952.952 0 0 1 1.26.1l5.979 6.525c.361.348.563.81.563 1.29z" fill="#000"/></svg>
